Catalina-light/actions/22/edit-table-cell-split.svg

<svg viewBox="0 0 22 22" xmlns="http://www.w3.org/2000/svg">
<defs>
<style id="current-color-scheme" type="text/css">.ColorScheme-Text {
        color:#4d4d4d;
      }</style>
</defs>
<path class="ColorScheme-Text" d="m3 3v16h16v-16h-16zm1 1h4v2h-4v-2zm5 0h4v2h-4v-2zm5 0h4v2h-4v-2zm-10 3h14v2h-3v1h3v2h-3v1h3v2h-14v-2h3v-1h-3v-2h3v-1h-3v-2zm0 9h4v2h-4v-2zm5 0h4v2h-4v-2zm5 0h4v2h-4v-2z" fill="currentColor"/>
<path d="m7 7v8h8v-8h-8m1 1h6v1l-2 2 2 2v1h-6v-6" fill="#da4453"/>
</svg>

<svg xmlns="http://www.w3.org/2000/svg" viewBox="0 0 22 22">
  <defs id="defs3051">
    <style type="text/css" id="current-color-scheme">
      .ColorScheme-Text {
        color:#4d4d4d;
      }
      </style>
  </defs>
 <path 
    style="fill:currentColor;fill-opacity:1;stroke:none" 
    d="M 3 3 L 3 4 L 3 19 L 4 19 L 18 19 L 19 19 L 19 4 L 19 3 L 3 3 z M 4 4 L 8 4 L 8 5 L 8 6 L 7 6 L 4 6 L 4 4 z M 9 4 L 13 4 L 13 5 L 13 6 L 9 6 L 9 5 L 9 4 z M 14 4 L 18 4 L 18 6 L 15 6 L 14 6 L 14 5 L 14 4 z M 4 7 L 7 7 L 8 7 L 9 7 L 13 7 L 14 7 L 15 7 L 18 7 L 18 9 L 15 9 L 15 10 L 18 10 L 18 12 L 15 12 L 15 13 L 18 13 L 18 15 L 15 15 L 14 15 L 13 15 L 9 15 L 8 15 L 7 15 L 4 15 L 4 13 L 7 13 L 7 12 L 4 12 L 4 10 L 7 10 L 7 9 L 4 9 L 4 7 z M 4 16 L 7 16 L 8 16 L 8 17.099609 L 8 18 L 4 18 L 4 16 z M 9 16 L 13 16 L 13 18 L 9 18 L 9 16 z M 14 16 L 18 16 L 18 18 L 14 18 L 14 16 z "
    class="ColorScheme-Text"
    />  
  <path
     style="fill:#da4453"
     d="m 7,7 0,8 8,0 0,-8 -8,0 m 1,1 6,0 0,1 -2,2 2,2 0,1 -6,0 0,-6" />
</svg>
